X:448
M:C|
L:1/8
K:G
dgg>f eaeg|fdef gfga|dggf eaeg|fadf g2 gg/f/|gbfa egdB|ceBd ABce|
dcBg dcBG|FDFd G2G||

